!!!COM: Bach, Johann Sebastian
!!!CDT: 1685/3//-1750/7/28/
!!!OTL@@DE: O Gott, du frommer Gott
!!!OTL@EN:  O pious God
!!!AGN: 4-Part Chorale
!!!SCT: BH 315
!!!SCT: BWV 399
**harm	**root	**kern	**kern	**kern	**kern
!	!	!bass	!tenor	!alto	!soprno
*	*Iorgan	*Iorgan	*Iorgan	*Iorgan	*Iorgan
*	*	*clefF4	*clefF4	*clefG2	*clefG2
*M4/4	*M4/4	*M4/4	*M4/4	*M4/4	*M4/4
*met(c)	*met(c)	*met(c)	*met(c)	*met(c)	*met(c)
*MM56	*MM56	*MM56	*MM56	*MM56	*MM56
*k[f#c#]	*k[f#c#]	*k[f#c#]	*k[f#c#]	*k[f#c#]	*k[f#c#]
*>[A,A,B]	*>[A,A,B]	*>[A,A,B]	*>[A,A,B]	*>[A,A,B]	*>[A,A,B]
*>A	*>A	*>A	*>A	*>A	*>A
*D:	*D:	*D:	*D:	*D:	*D:
vi	4EE	[4BB	8D	4d	4f#
.	.	.	8E	.	.
=1	=1	=1	=1	=1	=1
iii7	4.BB	8BB]	4.F#	4c#	4f#
.	.	4AA	.	.	.
.	.	.	.	8d	4b
vii7Dc	8FF#	8GG	8E	8c#	.
Ib	8GG	8FF#	8F#	4d	4a
IV	8CC	8GG	8B	.	.
V7	4DD	4AA	4A	4c#	16g
.	.	.	.	.	16f#
.	.	.	.	.	8g
=2	=2	=2	=2	=2	=2
I;	2.GG;	2.DD;	2.A;	2.d;	2.f#;
I	8GG	8DD	8A	4d	8f#
ii7	8AA	8EE	8G	.	8g
=3	=3	=3	=3	=3	=3
Ib	4GG	4FF#	8F#	8d	4a
.	.	.	8E	8c#	.
IV	4CC	[4GG	4D	8B	4d
.	.	.	.	16c#	.
.	.	.	.	16d	.
V7d	4DD	8GG]	4A	4c#	4e
.	.	8FF#	.	.	.
I	4GG	8EE	4A	[4d	4f#
.	.	8DD	.	.	.
=4	=4	=4	=4	=4	=4
V7	2DD	2AA	4.A	8d]	2e
.	.	.	.	8B	.
.	.	.	.	4c#	.
.	.	.	8G	.	.
I;	4GG;	4DD;	4F#;	4A;	4d;
=:|!	=:|!	=:|!	=:|!	=:|!	=:|!
*>B	*>B	*>B	*>B	*>B	*>B
V7d/V	4AA	[4D	4G#	4B	4e
=5	=5	=5	=5	=5	=5
Vb	4DD	8D]	4A	4A	4e
.	.	8C#	.	.	.
iiib	4BB	8BB	4A	4c#	4f#
.	.	8AA	.	.	.
IVb	4CC	4BB	8G	4d	8g
.	.	.	8F#	.	8b
vi	8EE	4C#	8E	4e	8a
V7b	8DD	.	8A	.	8g
!!linebreak: 2
=6	=6	=6	=6	=6	=6
I;	2.GG;	2.D;	2.A;	2.d;	2.f#;
*A:	*A:	*A:	*A:	*A:	*A:
IV	4GG	4DD	4A	8d	4f#
.	.	.	.	8c#	.
=7	=7	=7	=7	=7	=7
V7d	8AA	8D	8G#	8B	4e
Ib	8DD	8C#	8E	16A	.
.	.	.	.	16G#	.
IV	8GG	8F#	8D	4A	8a
I	8DD	8E	8C#	.	16b
.	.	.	.	.	16cc#
iib	8EE	8D	8F#	8d	4b
ii	8EE	8BB	8d	8f#	.
Ic	8DD	4E	8c#	8e	8a
V	8AA	.	8B	8d	8g#
=8	=8	=8	=8	=8	=8
I;	2.DD;	2.AA;	2.A;	2.c#;	2.a;
*G:	*G:	*G:	*G:	*G:	*G:
V/V	4DD	8A	4c#	4e	4a
.	.	8G	.	.	.
=9	=9	=9	=9	=9	=9
Vb	4GG	8F#	4d	4d	4a
.	.	8E	.	.	.
V7d	4GG	8D	4A	4d	4f#
.	.	8C	.	.	.
Ib	4CC	8BB	4B	4d	4g
.	.	8AA	.	.	.
V7b	4GG	8GG	4c	4d	4a
.	.	8FF#	.	.	.
=10	=10	=10	=10	=10	=10
I;	2.CC;	2.GG;	2.B;	2.d;	2.b;
*D:	*D:	*D:	*D:	*D:	*D:
V	4DD	4AA	4A	4c#	4e
=11	=11	=11	=11	=11	=11
I	4GG	8DD	4A	4d	8f#
.	.	8EE	.	.	16g
.	.	.	.	.	16a
IV7	4CC	8FF#	8A	4d	8g
.	.	8GG	8B	.	8f#
Ic	4GG	4AA	4A	4d	4f#
V7	4DD	4AA	4G	4c#	8e
.	.	.	.	.	8d
=12	=12	=12	=12	=12	=12
I;	2.GG;	2.DD;	2.F#;	2.A;	2.d;
==|!	==|!	==|!	==|!	==|!	==|!
*-	*-	*-	*-	*-	*-
!!chor2scor: -l 2 -o %b.pmx
!!!YEC: Copyright 2003 by Craig Stuart Sapp
!!!license: GNU General Public License (http://www.gnu.org/copyleft/gpl.html)
!!!SMA: 371 Bach Chorales, edited by Ludwig Erk, C.F. Peters
!!!PDT: 1850, 1865
!!!ONB: Harmony and Root analysis done manually by Craig Sapp
